icons/minitab/minitab-plain.svg

<svg xmlns="http://www.w3.org/2000/svg" viewBox="0 0 128 128"><path fill="#8DC63F" d="M0 0v128h128V0H0zm34.6 106.5H14.8v-54h19.7v54zm27.1 0H42v-87h19.7v87zm27.1 0H69.1V37.6h19.7v68.9zm27.2 0H96.3V68.6H116v37.9z"/></svg>

<svg xmlns="http://www.w3.org/2000/svg" viewBox="0 0 128 128"><path fill="#8DC63F" d="M0,0v128h128V0H0z M34.6,106.5H14.8v-54h19.7V106.5z M61.7,106.5H42v-87h19.7V106.5z M88.8,106.5H69.1V37.6h19.7V106.5z M116,106.5H96.3V68.6H116V106.5z"/></svg>
